; generated by Slic3r 0.7.1 on 2013-04-18 at 15:27:06

; layer_height = 0.4
; perimeters = 3
; solid_layers = 3
; fill_density = 0.1
; nozzle_diameter = 0.5
; filament_diameter = 3
; extrusion_multiplier = 1
; perimeter_speed = 60
; infill_speed = 100
; travel_speed = 130
; extrusion_width_ratio = 0
; scale = 1
; single wall width = 0.53mm

M104 S200 ; set temperature
G28 ; home all axes
M109 S200 ; wait for temperature to be reached
G90 ; use absolute coordinates
G21 ; set units to millimeters
G92 E0 ; reset extrusion distance
M82 ; use absolute distances for extrusion
G1 Z0.400 F7800.000
G1 X155.174 Y102.368
G1 F1800.000 E1.00000
G1 X155.500 Y101.902 F900.000 E1.01673
G1 X155.902 Y101.500 E1.03346
G1 X156.368 Y101.174 E1.05018
G1 X156.884 Y100.933 E1.06691
G1 X157.433 Y100.786 E1.08364
G1 X158.000 Y100.736 E1.10037
G1 X158.567 Y100.786 E1.11709
G1 X159.116 Y100.933 E1.13382
G1 X159.632 Y101.174 E1.15055
G1 X160.098 Y101.500 E1.16728
G1 X160.500 Y101.902 E1.18400
G1 X160.826 Y102.368 E1.20073
G1 X161.067 Y102.884 E1.21746
G1 X161.214 Y103.433 E1.23419
G1 X161.263 Y103.989 E1.25058
G1 X161.263 Y111.011 E1.45709
G1 X161.214 Y111.567 E1.47348
G1 X161.067 Y112.116 E1.49021
G1 X160.826 Y112.632 E1.50693
G1 X160.500 Y113.098 E1.52366
G1 X160.098 Y113.500 E1.54039
G1 X159.632 Y113.826 E1.55712
G1 X159.116 Y114.067 E1.57384
G1 X158.567 Y114.214 E1.59057
G1 X158.000 Y114.264 E1.60730
G1 X157.433 Y114.214 E1.62403
G1 X156.884 Y114.067 E1.64075
G1 X156.368 Y113.826 E1.65748
G1 X155.902 Y113.500 E1.67421
G1 X155.500 Y113.098 E1.69094
G1 X155.174 Y112.632 E1.70767
G1 X154.933 Y112.116 E1.72439
G1 X154.786 Y111.567 E1.74112
G1 X154.738 Y111.011 E1.75751
G1 X154.738 Y103.989 E1.96402
G1 X154.786 Y103.433 E1.98041
G1 X154.933 Y102.884 E1.99714
G1 X155.140 Y102.440 E2.01155
G1 X154.726 Y102.110 F7800.000
G1 X155.104 Y101.570 F900.000 E2.03093
G1 X155.570 Y101.104 E2.05031
G1 X156.110 Y100.726 E2.06969
G1 X156.707 Y100.447 E2.08906
G1 X157.343 Y100.277 E2.10844
G1 X158.000 Y100.219 E2.12782
G1 X158.657 Y100.277 E2.14720
G1 X159.293 Y100.447 E2.16658
G1 X159.890 Y100.726 E2.18596
G1 X160.430 Y101.104 E2.20533
G1 X160.896 Y101.570 E2.22471
G1 X161.274 Y102.110 E2.24409
G1 X161.553 Y102.707 E2.26347
G1 X161.723 Y103.343 E2.28285
G1 X161.778 Y103.966 E2.30122
G1 X161.778 Y111.034 E2.50906
G1 X161.723 Y111.657 E2.52744
G1 X161.553 Y112.293 E2.54681
G1 X161.274 Y112.890 E2.56619
G1 X160.896 Y113.430 E2.58557
G1 X160.430 Y113.896 E2.60495
G1 X159.890 Y114.274 E2.62433
G1 X159.293 Y114.553 E2.64371
G1 X158.657 Y114.723 E2.66308
G1 X158.000 Y114.781 E2.68246
G1 X157.343 Y114.723 E2.70184
G1 X156.707 Y114.553 E2.72122
G1 X156.110 Y114.274 E2.74060
G1 X155.570 Y113.896 E2.75998
G1 X155.104 Y113.430 E2.77935
G1 X154.726 Y112.890 E2.79873
G1 X154.447 Y112.293 E2.81811
G1 X154.277 Y111.657 E2.83749
G1 X154.222 Y111.034 E2.85587
G1 X154.222 Y103.966 E3.06370
G1 X154.277 Y103.343 E3.08208
G1 X154.447 Y102.707 E3.10146
G1 X154.693 Y102.181 E3.11852
G1 X154.278 Y101.851 F7800.000
G1 X154.708 Y101.237 F900.000 E3.14055
G1 X155.237 Y100.708 E3.16258
G1 X155.851 Y100.278 E3.18461
G1 X156.530 Y99.961 E3.20663
G1 X157.254 Y99.767 E3.22866
G1 X158.000 Y99.702 E3.25069
G1 X158.746 Y99.767 E3.27272
G1 X159.470 Y99.961 E3.29475
G1 X160.149 Y100.278 E3.31678
G1 X160.763 Y100.708 E3.33881
G1 X161.292 Y101.237 E3.36084
G1 X161.722 Y101.851 E3.38287
G1 X162.039 Y102.530 E3.40490
G1 X162.233 Y103.254 E3.42693
G1 X162.293 Y103.944 E3.44729
G1 X162.293 Y111.056 E3.65645
G1 X162.233 Y111.746 E3.67681
G1 X162.039 Y112.470 E3.69884
G1 X161.722 Y113.149 E3.72087
G1 X161.292 Y113.763 E3.74290
G1 X160.763 Y114.292 E3.76493
G1 X160.149 Y114.722 E3.78696
G1 X159.470 Y115.039 E3.80898
G1 X158.746 Y115.233 E3.83101
G1 X158.000 Y115.298 E3.85304
G1 X157.254 Y115.233 E3.87507
G1 X156.530 Y115.039 E3.89710
G1 X155.851 Y114.722 E3.91913
G1 X155.237 Y114.292 E3.94116
G1 X154.708 Y113.763 E3.96319
G1 X154.278 Y113.149 E3.98522
G1 X153.961 Y112.470 E4.00725
G1 X153.767 Y111.746 E4.02928
G1 X153.707 Y111.056 E4.04964
G1 X153.707 Y103.944 E4.25880
G1 X153.767 Y103.254 E4.27916
G1 X153.961 Y102.530 E4.30119
G1 X154.245 Y101.922 E4.32090
G1 F1800.000 E3.32090
G92 E0
G1 X181.786 Y96.567 F7800.000
G1 F1800.000 E1.00000
G1 X181.738 Y96.011 F900.000 E1.01639
G1 X181.738 Y88.989 E1.22290
G1 X181.786 Y88.433 E1.23929
G1 X181.933 Y87.884 E1.25602
G1 X182.174 Y87.368 E1.27275
G1 X182.500 Y86.902 E1.28947
G1 X182.902 Y86.500 E1.30620
G1 X183.368 Y86.174 E1.32293
G1 X183.884 Y85.933 E1.33966
G1 X184.433 Y85.786 E1.35638
G1 X185.000 Y85.736 E1.37311
G1 X185.567 Y85.786 E1.38984
G1 X186.116 Y85.933 E1.40657
G1 X186.632 Y86.174 E1.42329
G1 X187.098 Y86.500 E1.44002
G1 X187.500 Y86.902 E1.45675
G1 X187.826 Y87.368 E1.47348
G1 X188.067 Y87.884 E1.49021
G1 X188.214 Y88.433 E1.50693
G1 X188.263 Y88.989 E1.52332
G1 X188.263 Y96.011 E1.72983
G1 X188.214 Y96.567 E1.74622
G1 X188.067 Y97.116 E1.76295
G1 X187.826 Y97.632 E1.77968
G1 X187.500 Y98.098 E1.79641
G1 X187.098 Y98.500 E1.81313
G1 X186.632 Y98.826 E1.82986
G1 X186.116 Y99.067 E1.84659
G1 X185.567 Y99.214 E1.86332
G1 X185.000 Y99.264 E1.88004
G1 X184.433 Y99.214 E1.89677
G1 X183.884 Y99.067 E1.91350
G1 X183.368 Y98.826 E1.93023
G1 X182.902 Y98.500 E1.94696
G1 X182.500 Y98.098 E1.96368
G1 X182.174 Y97.632 E1.98041
G1 X181.933 Y97.116 E1.99714
G1 X181.806 Y96.643 E2.01155
G1 X181.277 Y96.657 F7800.000
G1 X181.222 Y96.034 F900.000 E2.02993
G1 X181.222 Y88.966 E2.23776
G1 X181.277 Y88.343 E2.25614
G1 X181.447 Y87.707 E2.27552
G1 X181.726 Y87.110 E2.29489
G1 X182.104 Y86.570 E2.31427
G1 X182.570 Y86.104 E2.33365
G1 X183.110 Y85.726 E2.35303
G1 X183.707 Y85.447 E2.37241
G1 X184.344 Y85.277 E2.39179
G1 X185.000 Y85.219 E2.41116
G1 X185.657 Y85.277 E2.43054
G1 X186.293 Y85.447 E2.44992
G1 X186.890 Y85.726 E2.46930
G1 X187.430 Y86.104 E2.48868
G1 X187.896 Y86.570 E2.50806
G1 X188.274 Y87.110 E2.52744
G1 X188.553 Y87.707 E2.54681
G1 X188.723 Y88.343 E2.56619
G1 X188.778 Y88.966 E2.58457
G1 X188.778 Y96.034 E2.79240
G1 X188.723 Y96.657 E2.81078
G1 X188.553 Y97.293 E2.83016
G1 X188.274 Y97.890 E2.84954
G1 X187.896 Y98.430 E2.86891
G1 X187.430 Y98.896 E2.88829
G1 X186.890 Y99.274 E2.90767
G1 X186.293 Y99.553 E2.92705
G1 X185.657 Y99.723 E2.94643
G1 X185.000 Y99.781 E2.96581
G1 X184.343 Y99.723 E2.98518
G1 X183.707 Y99.553 E3.00456
G1 X183.110 Y99.274 E3.02394
G1 X182.570 Y98.896 E3.04332
G1 X182.104 Y98.430 E3.06270
G1 X181.726 Y97.890 E3.08208
G1 X181.447 Y97.293 E3.10146
G1 X181.297 Y96.733 E3.11852
G1 X180.767 Y96.746 F7800.000
G1 X180.707 Y96.056 F900.000 E3.13888
G1 X180.707 Y88.944 E3.34804
G1 X180.767 Y88.254 E3.36840
G1 X180.961 Y87.530 E3.39043
G1 X181.278 Y86.851 E3.41246
G1 X181.708 Y86.237 E3.43449
G1 X182.237 Y85.708 E3.45652
G1 X182.851 Y85.278 E3.47855
G1 X183.530 Y84.961 E3.50058
G1 X184.254 Y84.767 E3.52261
G1 X185.000 Y84.702 E3.54463
G1 X185.746 Y84.767 E3.56666
G1 X186.470 Y84.961 E3.58869
G1 X187.149 Y85.278 E3.61072
G1 X187.763 Y85.708 E3.63275
G1 X188.292 Y86.237 E3.65478
G1 X188.722 Y86.851 E3.67681
G1 X189.039 Y87.530 E3.69884
G1 X189.233 Y88.254 E3.72087
G1 X189.293 Y88.944 E3.74123
G1 X189.293 Y96.056 E3.95039
G1 X189.233 Y96.746 E3.97075
G1 X189.039 Y97.470 E3.99278
G1 X188.722 Y98.149 E4.01481
G1 X188.292 Y98.763 E4.03684
G1 X187.763 Y99.292 E4.05887
G1 X187.149 Y99.722 E4.08090
G1 X186.470 Y100.039 E4.10293
G1 X185.746 Y100.233 E4.12495
G1 X185.000 Y100.298 E4.14698
G1 X184.254 Y100.233 E4.16901
G1 X183.530 Y100.039 E4.19104
G1 X182.851 Y99.722 E4.21307
G1 X182.237 Y99.292 E4.23510
G1 X181.708 Y98.763 E4.25713
G1 X181.278 Y98.149 E4.27916
G1 X180.961 Y97.470 E4.30119
G1 X180.788 Y96.822 E4.32090
G1 F1800.000 E3.32090
G92 E0
G1 X103.764 Y100.000 F7800.000
G1 F1800.000 E1.00000
G1 X103.706 Y100.654 F900.000 E1.01929
G1 X103.537 Y101.287 E1.03858
G1 X103.259 Y101.882 E1.05787
G1 X102.883 Y102.419 E1.07716
G1 X102.419 Y102.883 E1.09645
G1 X101.882 Y103.259 E1.11574
G1 X101.287 Y103.537 E1.13503
G1 X100.654 Y103.706 E1.15432
G1 X100.000 Y103.764 E1.17361
G1 X99.346 Y103.706 E1.19291
G1 X98.713 Y103.537 E1.21220
G1 X98.118 Y103.259 E1.23149
G1 X97.581 Y102.883 E1.25078
G1 X97.117 Y102.419 E1.27007
G1 X96.741 Y101.882 E1.28936
G1 X96.463 Y101.287 E1.30865
G1 X96.294 Y100.654 E1.32794
G1 X96.236 Y100.000 E1.34723
G1 X96.294 Y99.346 E1.36652
G1 X96.463 Y98.713 E1.38581
G1 X96.741 Y98.118 E1.40510
G1 X97.117 Y97.581 E1.42439
G1 X97.581 Y97.117 E1.44368
G1 X98.118 Y96.741 E1.46297
G1 X98.713 Y96.463 E1.48226
G1 X99.346 Y96.294 E1.50155
G1 X100.000 Y96.236 E1.52084
G1 X100.654 Y96.294 E1.54013
G1 X101.287 Y96.463 E1.55943
G1 X101.882 Y96.741 E1.57872
G1 X102.419 Y97.117 E1.59801
G1 X102.883 Y97.581 E1.61730
G1 X103.259 Y98.118 E1.63659
G1 X103.537 Y98.713 E1.65588
G1 X103.706 Y99.346 E1.67517
G1 X103.757 Y99.922 E1.69214
G1 X104.281 Y100.000 F7800.000
G1 X104.216 Y100.743 F900.000 E1.71408
G1 X104.022 Y101.464 E1.73603
G1 X103.707 Y102.140 E1.75797
G1 X103.279 Y102.752 E1.77991
G1 X102.752 Y103.279 E1.80185
G1 X102.140 Y103.707 E1.82379
G1 X101.464 Y104.022 E1.84573
G1 X100.743 Y104.216 E1.86767
G1 X100.000 Y104.281 E1.88962
G1 X99.257 Y104.216 E1.91156
G1 X98.536 Y104.022 E1.93350
G1 X97.860 Y103.707 E1.95544
G1 X97.248 Y103.279 E1.97738
G1 X96.721 Y102.752 E1.99932
G1 X96.293 Y102.140 E2.02126
G1 X95.978 Y101.464 E2.04320
G1 X95.784 Y100.743 E2.06515
G1 X95.719 Y100.000 E2.08709
G1 X95.784 Y99.257 E2.10903
G1 X95.978 Y98.536 E2.13097
G1 X96.293 Y97.860 E2.15291
G1 X96.721 Y97.248 E2.17485
G1 X97.248 Y96.721 E2.19679
G1 X97.860 Y96.293 E2.21873
G1 X98.536 Y95.978 E2.24068
G1 X99.257 Y95.784 E2.26262
G1 X100.000 Y95.719 E2.28456
G1 X100.743 Y95.784 E2.30650
G1 X101.464 Y95.978 E2.32844
G1 X102.140 Y96.293 E2.35038
G1 X102.752 Y96.721 E2.37232
G1 X103.279 Y97.248 E2.39426
G1 X103.707 Y97.860 E2.41621
G1 X104.022 Y98.536 E2.43815
G1 X104.216 Y99.257 E2.46009
G1 X104.274 Y99.922 E2.47971
G1 X104.798 Y100.000 F7800.000
G1 X104.725 Y100.833 F900.000 E2.50431
G1 X104.508 Y101.641 E2.52890
G1 X104.155 Y102.399 E2.55349
G1 X103.675 Y103.084 E2.57808
G1 X103.084 Y103.675 E2.60267
G1 X102.399 Y104.155 E2.62727
G1 X101.641 Y104.508 E2.65186
G1 X100.833 Y104.725 E2.67645
G1 X100.000 Y104.798 E2.70104
G1 X99.167 Y104.725 E2.72563
G1 X98.359 Y104.508 E2.75023
G1 X97.601 Y104.155 E2.77482
G1 X96.916 Y103.675 E2.79941
G1 X96.325 Y103.084 E2.82400
G1 X95.845 Y102.399 E2.84859
G1 X95.492 Y101.641 E2.87319
G1 X95.275 Y100.833 E2.89778
G1 X95.202 Y100.000 E2.92237
G1 X95.275 Y99.167 E2.94696
G1 X95.492 Y98.359 E2.97155
G1 X95.845 Y97.601 E2.99615
G1 X96.325 Y96.916 E3.02074
G1 X96.916 Y96.325 E3.04533
G1 X97.601 Y95.845 E3.06992
G1 X98.359 Y95.492 E3.09451
G1 X99.167 Y95.275 E3.11911
G1 X100.000 Y95.202 E3.14370
G1 X100.833 Y95.275 E3.16829
G1 X101.641 Y95.492 E3.19288
G1 X102.399 Y95.845 E3.21748
G1 X103.084 Y96.325 E3.24207
G1 X103.675 Y96.916 E3.26666
G1 X104.155 Y97.601 E3.29125
G1 X104.508 Y98.359 E3.31584
G1 X104.725 Y99.167 E3.34044
G1 X104.791 Y99.922 E3.36271
G1 F1800.000 E2.36271
G92 E0
G1 X45.263 Y96.011 F7800.000
G1 F1800.000 E1.00000
G1 X45.214 Y96.567 F900.000 E1.01639
G1 X45.067 Y97.116 E1.03312
G1 X44.826 Y97.632 E1.04984
G1 X44.500 Y98.098 E1.06657
G1 X44.098 Y98.500 E1.08330
G1 X43.632 Y98.826 E1.10003
G1 X43.116 Y99.067 E1.11676
G1 X42.567 Y99.214 E1.13348
G1 X42.000 Y99.264 E1.15021
G1 X41.433 Y99.214 E1.16694
G1 X40.884 Y99.067 E1.18367
G1 X40.368 Y98.826 E1.20039
G1 X39.902 Y98.500 E1.21712
G1 X39.500 Y98.098 E1.23385
G1 X39.174 Y97.632 E1.25058
G1 X38.933 Y97.116 E1.26730
G1 X38.786 Y96.567 E1.28403
G1 X38.738 Y96.011 E1.30042
G1 X38.738 Y88.989 E1.50693
G1 X38.786 Y88.433 E1.52332
G1 X38.933 Y87.884 E1.54005
G1 X39.174 Y87.368 E1.55678
G1 X39.500 Y86.902 E1.57351
G1 X39.902 Y86.500 E1.59023
G1 X40.368 Y86.174 E1.60696
G1 X40.884 Y85.933 E1.62369
G1 X41.433 Y85.786 E1.64042
G1 X42.000 Y85.736 E1.65714
G1 X42.567 Y85.786 E1.67387
G1 X43.116 Y85.933 E1.69060
G1 X43.632 Y86.174 E1.70733
G1 X44.098 Y86.500 E1.72405
G1 X44.500 Y86.902 E1.74078
G1 X44.826 Y87.368 E1.75751
G1 X45.067 Y87.884 E1.77424
G1 X45.214 Y88.433 E1.79097
G1 X45.263 Y88.989 E1.80735
G1 X45.263 Y95.933 E2.01155
G1 X45.778 Y96.034 F7800.000
G1 X45.723 Y96.657 F900.000 E2.02993
G1 X45.553 Y97.293 E2.04931
G1 X45.274 Y97.890 E2.06868
G1 X44.896 Y98.430 E2.08806
G1 X44.430 Y98.896 E2.10744
G1 X43.890 Y99.274 E2.12682
G1 X43.293 Y99.553 E2.14620
G1 X42.657 Y99.723 E2.16558
G1 X42.000 Y99.781 E2.18495
G1 X41.343 Y99.723 E2.20433
G1 X40.707 Y99.553 E2.22371
G1 X40.110 Y99.274 E2.24309
G1 X39.570 Y98.896 E2.26247
G1 X39.104 Y98.430 E2.28185
G1 X38.726 Y97.890 E2.30122
G1 X38.447 Y97.293 E2.32060
G1 X38.277 Y96.657 E2.33998
G1 X38.222 Y96.034 E2.35836
G1 X38.222 Y88.966 E2.56619
G1 X38.277 Y88.343 E2.58457
G1 X38.447 Y87.707 E2.60395
G1 X38.726 Y87.110 E2.62333
G1 X39.104 Y86.570 E2.64270
G1 X39.570 Y86.104 E2.66208
G1 X40.110 Y85.726 E2.68146
G1 X40.707 Y85.447 E2.70084
G1 X41.343 Y85.277 E2.72022
G1 X42.000 Y85.219 E2.73960
G1 X42.657 Y85.277 E2.75897
G1 X43.293 Y85.447 E2.77835
G1 X43.890 Y85.726 E2.79773
G1 X44.430 Y86.104 E2.81711
G1 X44.896 Y86.570 E2.83649
G1 X45.274 Y87.110 E2.85587
G1 X45.553 Y87.707 E2.87524
G1 X45.723 Y88.343 E2.89462
G1 X45.778 Y88.966 E2.91300
G1 X45.778 Y95.955 E3.11852
G1 X46.293 Y96.056 F7800.000
G1 X46.233 Y96.746 F900.000 E3.13888
G1 X46.039 Y97.470 E3.16091
G1 X45.722 Y98.149 E3.18294
G1 X45.292 Y98.763 E3.20497
G1 X44.763 Y99.292 E3.22700
G1 X44.149 Y99.722 E3.24903
G1 X43.470 Y100.039 E3.27106
G1 X42.746 Y100.233 E3.29309
G1 X42.000 Y100.298 E3.31511
G1 X41.254 Y100.233 E3.33714
G1 X40.530 Y100.039 E3.35917
G1 X39.851 Y99.722 E3.38120
G1 X39.237 Y99.292 E3.40323
G1 X38.708 Y98.763 E3.42526
G1 X38.278 Y98.149 E3.44729
G1 X37.961 Y97.470 E3.46932
G1 X37.767 Y96.746 E3.49135
G1 X37.707 Y96.056 E3.51171
G1 X37.707 Y88.944 E3.72087
G1 X37.767 Y88.254 E3.74123
G1 X37.961 Y87.530 E3.76326
G1 X38.278 Y86.851 E3.78529
G1 X38.708 Y86.237 E3.80732
G1 X39.237 Y85.708 E3.82935
G1 X39.851 Y85.278 E3.85138
G1 X40.530 Y84.961 E3.87341
G1 X41.254 Y84.767 E3.89544
G1 X42.000 Y84.702 E3.91746
G1 X42.746 Y84.767 E3.93949
G1 X43.470 Y84.961 E3.96152
G1 X44.149 Y85.278 E3.98355
G1 X44.763 Y85.708 E4.00558
G1 X45.292 Y86.237 E4.02761
G1 X45.722 Y86.851 E4.04964
G1 X46.039 Y87.530 E4.07167
G1 X46.233 Y88.254 E4.09370
G1 X46.293 Y88.944 E4.11406
G1 X46.293 Y95.978 E4.32090
G1 F1800.000 E3.32090
G92 E0
G1 X21.067 Y102.884 F7800.000
G1 F1800.000 E1.00000
G1 X21.214 Y103.433 F900.000 E1.01673
G1 X21.262 Y103.989 E1.03312
G1 X21.262 Y111.011 E1.23963
G1 X21.214 Y111.567 E1.25602
G1 X21.067 Y112.116 E1.27275
G1 X20.826 Y112.632 E1.28947
G1 X20.500 Y113.098 E1.30620
G1 X20.098 Y113.500 E1.32293
G1 X19.632 Y113.826 E1.33966
G1 X19.116 Y114.067 E1.35638
G1 X18.567 Y114.214 E1.37311
G1 X18.000 Y114.264 E1.38984
G1 X17.433 Y114.214 E1.40657
G1 X16.884 Y114.067 E1.42329
G1 X16.368 Y113.826 E1.44002
G1 X15.902 Y113.500 E1.45675
G1 X15.500 Y113.098 E1.47348
G1 X15.174 Y112.632 E1.49021
G1 X14.933 Y112.116 E1.50693
G1 X14.786 Y111.567 E1.52366
G1 X14.738 Y111.011 E1.54005
G1 X14.738 Y103.989 E1.74656
G1 X14.786 Y103.433 E1.76295
G1 X14.933 Y102.884 E1.77968
G1 X15.174 Y102.368 E1.79641
G1 X15.500 Y101.902 E1.81313
G1 X15.902 Y101.500 E1.82986
G1 X16.368 Y101.174 E1.84659
G1 X16.884 Y100.933 E1.86332
G1 X17.433 Y100.786 E1.88004
G1 X18.000 Y100.736 E1.89677
G1 X18.567 Y100.786 E1.91350
G1 X19.116 Y100.933 E1.93023
G1 X19.632 Y101.174 E1.94696
G1 X20.098 Y101.500 E1.96368
G1 X20.500 Y101.902 E1.98041
G1 X20.826 Y102.368 E1.99714
G1 X21.033 Y102.812 E2.01155
G1 X21.553 Y102.707 F7800.000
G1 X21.723 Y103.344 F900.000 E2.03093
G1 X21.778 Y103.966 E2.04931
G1 X21.778 Y111.034 E2.25714
G1 X21.723 Y111.656 E2.27552
G1 X21.553 Y112.293 E2.29489
G1 X21.274 Y112.890 E2.31427
G1 X20.896 Y113.430 E2.33365
G1 X20.430 Y113.896 E2.35303
G1 X19.890 Y114.274 E2.37241
G1 X19.293 Y114.553 E2.39179
G1 X18.657 Y114.723 E2.41116
G1 X18.000 Y114.781 E2.43054
G1 X17.343 Y114.723 E2.44992
G1 X16.707 Y114.553 E2.46930
G1 X16.110 Y114.274 E2.48868
G1 X15.570 Y113.896 E2.50806
